icons/guidance-icons/manoeuvers-sdk/left-roundabout-exit12.svg

<svg width="80" height="80" viewBox="0 0 80 80" fill="none" xmlns="http://www.w3.org/2000/svg">
<path d="M66.1599 27.51C66.1599 26.67 66.1599 25.84 66.0399 25.01H60.3999C60.2085 23.1173 59.7576 21.2598 59.0599 19.49L63.8199 16.74C63.123 15.2232 62.2825 13.7766 61.3099 12.42L56.6599 15.1C55.5322 13.5177 54.1854 12.1036 52.6599 10.9L55.2799 6.36001C53.9186 5.39207 52.4688 4.55502 50.9499 3.86001L48.3699 8.30001C46.5542 7.49065 44.631 6.94836 42.6599 6.69001V1.64001C41.8399 1.56001 41.0099 1.51001 40.1599 1.51001C39.3099 1.51001 38.4899 1.56001 37.6599 1.64001V6.64001C35.6715 6.86766 33.7273 7.38655 31.8899 8.18001L29.3899 3.86001C27.8731 4.55693 26.4265 5.39743 25.0699 6.37001L27.5799 10.73C26.0002 11.9451 24.6056 13.3835 23.4399 15L18.9999 12.42C18.0273 13.7766 17.1868 15.2232 16.4899 16.74L20.9999 19.34C20.2624 21.1492 19.7908 23.0556 19.5999 25H14.2899C14.2099 25.83 14.1599 26.66 14.1599 27.5C14.1599 28.34 14.2099 29.18 14.2899 30H19.7499C20.0239 31.8906 20.566 33.7325 21.3599 35.47L16.5099 38.27C17.1976 39.7938 18.0315 41.2473 18.9999 42.61L23.9999 39.75C25.155 41.2007 26.5004 42.489 27.9999 43.58L25.0699 48.66C26.4265 49.6326 27.8731 50.4731 29.3899 51.17L32.3899 46.01C35.2599 47.1676 38.3553 47.6581 41.4426 47.4444C44.5298 47.2308 47.5282 46.3186 50.2113 44.7767C52.8945 43.2348 55.1923 41.1035 56.9313 38.5437C58.6703 35.9839 59.8051 33.0625 60.2499 30H65.9999C66.1199 29.19 66.1599 28.36 66.1599 27.51ZM39.9999 42.5C36.9343 42.5 33.9375 41.591 31.3886 39.8878C28.8396 38.1846 26.8529 35.7639 25.6798 32.9316C24.5066 30.0993 24.1997 26.9828 24.7977 23.9761C25.3958 20.9694 26.872 18.2076 29.0398 16.0399C31.2075 13.8721 33.9693 12.3959 36.976 11.7978C39.9827 11.1998 43.0993 11.5067 45.9315 12.6799C48.7638 13.853 51.1845 15.8397 52.8877 18.3887C54.5909 20.9376 55.4999 23.9344 55.4999 27C55.4973 31.1101 53.8634 35.051 50.9571 37.9572C48.0509 40.8635 44.11 42.4974 39.9999 42.5Z" fill="#C3CDDE" fill-opacity="0.35"/>
<path d="M37.0001 36H33.3801V22.12L29.5401 24.48L27.9201 22L33.7501 18.49H37.0001V36ZM50.6501 23.1C50.6501 25.94 49.1101 28.04 43.6501 33.1H51.0001L50.6201 36H39.4701V33.32C45.4701 27.37 46.8501 25.76 46.8501 23.42C46.8769 23.098 46.8337 22.774 46.7234 22.4703C46.6132 22.1666 46.4386 21.8903 46.2116 21.6604C45.9845 21.4305 45.7105 21.2525 45.4081 21.1385C45.1058 21.0245 44.7824 20.9772 44.4601 21C43.801 21.011 43.1549 21.1848 42.5792 21.5058C42.0034 21.8268 41.516 22.2851 41.1601 22.84L39.0001 21.08C39.6617 20.1502 40.5406 19.3963 41.5602 18.8839C42.5798 18.3715 43.7092 18.1161 44.8501 18.14C48.5401 18.14 50.6501 20.37 50.6501 23.1ZM66.8901 33.36L67.2501 45.94L67.0201 46.17L60.7301 39.88C60.0502 39.2169 59.5776 38.3705 59.3699 37.4437C59.1622 36.517 59.2283 35.5499 59.5601 34.66C61.0917 30.7413 61.4109 26.4528 60.4763 22.3505C59.5417 18.2483 57.3964 14.5213 54.3185 11.6528C51.2406 8.78421 47.3719 6.90635 43.2141 6.2626C39.0562 5.61885 34.8009 6.23889 30.9996 8.04234C27.1983 9.84579 24.0264 12.7495 21.895 16.3771C19.7636 20.0047 18.771 24.1888 19.0458 28.3873C19.3207 32.5857 20.8504 36.6047 23.4365 39.9234C26.0227 43.2422 29.5461 45.7075 33.5501 47C34.5509 47.3263 35.4232 47.9602 36.0427 48.8113C36.6622 49.6624 36.9972 50.6873 37.0001 51.74V80H43.0001V51.74C42.9991 49.4162 42.2622 47.1523 40.8951 45.2732C39.528 43.394 37.6008 41.9961 35.3901 41.28C32.1219 40.2331 29.3114 38.0972 27.4277 35.2286C25.5439 32.36 24.7008 28.9322 25.0389 25.5171C25.377 22.102 26.8759 18.906 29.2856 16.4625C31.6953 14.019 34.87 12.4757 38.2801 12.09C40.8548 11.7861 43.4642 12.1547 45.8539 13.1599C48.2437 14.165 50.3321 15.7724 51.9155 17.8252C53.4989 19.878 54.5233 22.3061 54.8886 24.8727C55.2539 27.4394 54.9478 30.0569 54.0001 32.47C53.2424 34.4466 53.0772 36.6013 53.5247 38.6704C53.9723 40.7394 55.0132 42.6332 56.5201 44.12L62.6401 50.24L50.3901 49.89L50.0001 56H73.0001V33L66.8901 33.36Z" fill="white"/>
</svg>

<svg xmlns="http://www.w3.org/2000/svg" viewBox="0 0 80 80"><path d="M66.16,27.51c0-.84,0-1.67-.12-2.5H60.4a20.74,20.74,0,0,0-1.34-5.52l4.76-2.75a26.16,26.16,0,0,0-2.51-4.32L56.66,15.1a20.52,20.52,0,0,0-4-4.2l2.62-4.54a26.5,26.5,0,0,0-4.33-2.5L48.37,8.3a20.6,20.6,0,0,0-5.71-1.61V1.64c-.82-.08-1.65-.13-2.5-.13s-1.67.05-2.5.13v5a20.41,20.41,0,0,0-5.77,1.54l-2.5-4.32a26.16,26.16,0,0,0-4.32,2.51l2.51,4.36A20.55,20.55,0,0,0,23.44,15L19,12.42a26.16,26.16,0,0,0-2.51,4.32L21,19.34A20.23,20.23,0,0,0,19.6,25H14.29c-.08.83-.13,1.66-.13,2.5s.05,1.68.13,2.5h5.46a20.1,20.1,0,0,0,1.61,5.47l-4.85,2.8A25.84,25.84,0,0,0,19,42.61L24,39.75a20.62,20.62,0,0,0,4,3.83l-2.93,5.08a26.16,26.16,0,0,0,4.32,2.51l3-5.16A20.43,20.43,0,0,0,60.25,30H66C66.12,29.19,66.16,28.36,66.16,27.51ZM40,42.5A15.5,15.5,0,1,1,55.5,27,15.51,15.51,0,0,1,40,42.5Z" style="fill:#d1def4;opacity:0.35000000000000003"/><path d="M37,36H33.38V22.12l-3.84,2.36L27.92,22l5.83-3.51H37ZM50.65,23.1c0,2.84-1.54,4.94-7,10H51L50.62,36H39.47V33.32c6-5.95,7.38-7.56,7.38-9.9A2.24,2.24,0,0,0,44.46,21a4,4,0,0,0-3.3,1.84L39,21.08a7,7,0,0,1,5.85-2.94C48.54,18.14,50.65,20.37,50.65,23.1ZM66.89,33.36l.36,12.58-.23.23-6.29-6.29a4.9,4.9,0,0,1-1.17-5.22A21,21,0,1,0,33.55,47,5,5,0,0,1,37,51.74V80h6V51.74a11,11,0,0,0-7.61-10.46,15,15,0,0,1,2.89-29.19A15,15,0,0,1,54,32.47a10.89,10.89,0,0,0,2.52,11.65l6.12,6.12-12.25-.35L50,56H73V33Z" style="fill:#fff"/></svg>
